Costumes/a-block.svg

<?xml version="1.0" encoding="UTF-8" standalone="no"?>
<svg
   version="1.1"
   width="60.5"
   height="79.322601"
   id="svg11"
   sodipodi:docname="a-block.svg"
   xmlns:inkscape="http://www.inkscape.org/namespaces/inkscape"
   xmlns:sodipodi="http://sodipodi.sourceforge.net/DTD/sodipodi-0.dtd"
   xmlns="http://www.w3.org/2000/svg"
   xmlns:svg="http://www.w3.org/2000/svg">
  <defs
     id="defs15" />
  <sodipodi:namedview
     id="namedview13"
     pagecolor="#ffffff"
     bordercolor="#000000"
     borderopacity="0.25"
     inkscape:showpageshadow="2"
     inkscape:pageopacity="0.0"
     inkscape:pagecheckerboard="0"
     inkscape:deskcolor="#d1d1d1" />
  <!-- Exported by Scratch - http://scratch.mit.edu/ -->
  <g
     id="ID0.37967492267489433"
     transform="translate(-0.5307622,-0.86011855)">
    <path
       id="ID0.9007096271961927"
       d="m 304,353 c 0.667,0 1.333,0 2,0 -0.451,1.633 5.45,1.633 5,0 0.333,0 0.667,0 1,0 0.027,0.973 1.224,0.776 2,1 -0.498,8.575 5.792,14.305 4,21 8.863,14.47 9.941,36.726 21,49 0,0.667 0,1.333 0,2 -5.698,-0.222 -0.555,5.196 -3,7 -2.741,3.259 -10.73,1.27 -13,5 -1,0 -2,0 -3,0 -4.039,-9.751 -3.384,-19.062 -9,-28 -13.792,-2.458 -13.76,8.906 -16,18 -2.364,2.303 -4.644,4.689 -5,9 -5.529,-0.472 -11.397,-0.603 -16,-2 0,-0.667 0,-1.333 0,-2 6.036,-23.631 12.035,-47.299 17,-72 9.608,2.608 5.054,-8.946 13,-8 z m -4,5 c -4.804,23.196 -11.592,44.408 -16,68 3.868,-0.535 4.882,1.785 9,1 1.354,-8.646 4.006,-15.994 5,-25 6.73,0.063 10.83,-2.503 17,-3 3.042,9.624 7.623,17.71 11,27 3.708,0.708 4.292,-1.708 8,-1 -3.697,-9.502 -9.257,-20.664 -10,-30 -6.889,-9.778 -8.721,-24.613 -12,-38 -5.781,0.608 -8.744,-2.132 -12,1 z"
       transform="matrix(0.93076921,0,0,0.93076921,-254.5,-327.65)" />
    <path
       id="ID0.8698426955379546"
       fill="none"
       d="m 306,353 c 1.667,0 3.333,0 5,0 0.45,1.633 -5.451,1.633 -5,0 z"
       transform="matrix(0.93076921,0,0,0.93076921,-254.5,-327.65)" />
    <path
       id="ID0.5615635616704822"
       fill="none"
       d="m 312,353 c 9,0 18,0 27,0 0,23.667 0,47.333 0,71 -11.059,-12.274 -12.137,-34.53 -21,-49 1.792,-6.695 -4.498,-12.425 -4,-21 -0.776,-0.224 -1.973,-0.027 -2,-1 z"
       transform="matrix(0.93076921,0,0,0.93076921,-254.5,-327.65)" />
    <path
       id="ID0.4079858735203743"
       fill="#ff9400"
       d="m 312,357 c 3.279,13.387 5.111,28.222 12,38 0.743,9.336 6.303,20.498 10,30 -3.708,-0.708 -4.292,1.708 -8,1 -3.377,-9.29 -7.958,-17.376 -11,-27 -6.17,0.497 -10.27,3.063 -17,3 -0.994,9.006 -3.646,16.354 -5,25 -4.118,0.785 -5.132,-1.535 -9,-1 4.408,-23.592 11.196,-44.804 16,-68 3.256,-3.132 6.219,-0.392 12,-1 z m -11,39 c 5.654,-1.482 8.818,-2.066 14,-1 -1.212,-9.455 -5.282,-16.051 -7,-25 -0.221,-0.779 -0.838,-1.163 -2,-1 -2.96,7.142 -5.291,19.903 -5,27 z"
       transform="matrix(0.93076921,0,0,0.93076921,-254.5,-327.65)" />
    <path
       id="ID0.7377838790416718"
       d="m 306,369 c 1.162,-0.163 1.779,0.221 2,1 1.718,8.949 5.788,15.545 7,25 -5.182,-1.066 -8.346,-0.482 -14,1 -0.291,-7.097 2.04,-19.858 5,-27 z m 0,22 c 0.16,-3.16 0.035,-6.035 -2,-7 0.729,2.271 -1.802,7.802 2,7 z"
       transform="matrix(0.93076921,0,0,0.93076921,-254.5,-327.65)" />
    <path
       id="ID0.5625731283798814"
       fill="none"
       d="m 304,384 c 2.035,0.965 2.16,3.84 2,7 -3.802,0.802 -1.271,-4.729 -2,-7 z"
       transform="matrix(0.93076921,0,0,0.93076921,-254.5,-327.65)" />
    <path
       id="ID0.8488714252598584"
       fill="none"
       d="m 320,438 c -15.002,-0.664 -32.664,1.33 -46,-1 0,-0.667 0,-1.333 0,-2 4.603,1.397 10.471,1.528 16,2 0.356,-4.311 2.636,-6.697 5,-9 2.24,-9.094 2.208,-20.458 16,-18 5.616,8.938 4.961,18.249 9,28 z"
       transform="matrix(0.93076921,0,0,0.93076921,-254.5,-327.65)" />
    <path
       id="ID0.4829629873856902"
       fill="none"
       d="m 339,426 c 0,4 0,8 0,12 -5.333,0 -10.667,0 -16,0 2.27,-3.73 10.259,-1.741 13,-5 2.445,-1.804 -2.698,-7.222 3,-7 z"
       transform="matrix(0.93076921,0,0,0.93076921,-254.5,-327.65)" />
  </g>
</svg>

<svg version="1.1" width="62" height="81" xmlns="http://www.w3.org/2000/svg" xmlns:xlink="http://www.w3.org/1999/xlink">
  <!-- Exported by Scratch - http://scratch.mit.edu/ -->
  <g id="ID0.37967492267489433">
    <path id="ID0.9007096271961927" d="M 304 353 C 304.667 353 305.333 353 306 353 C 305.549 354.633 311.450 354.633 311 353 C 311.333 353 311.667 353 312 353 C 312.027 353.973 313.224 353.776 314 354 C 313.502 362.575 319.792 368.305 318 375 C 326.863 389.470 327.941 411.726 339 424 C 339 424.667 339 425.333 339 426 C 333.302 425.778 338.445 431.196 336 433 C 333.259 436.259 325.270 434.270 323 438 C 322 438 321 438 320 438 C 315.961 428.249 316.616 418.938 311 410 C 297.208 407.542 297.240 418.906 295 428 C 292.636 430.303 290.356 432.689 290 437 C 284.471 436.528 278.603 436.397 274 435 C 274 434.333 274 433.667 274 433 C 280.036 409.369 286.035 385.701 291 361 C 300.608 363.608 296.054 352.054 304 353 Z M 300 358 C 295.196 381.196 288.408 402.408 284 426 C 287.868 425.465 288.882 427.785 293 427 C 294.354 418.354 297.006 411.006 298 402 C 304.730 402.063 308.830 399.497 315 399 C 318.042 408.624 322.623 416.710 326 426 C 329.708 426.708 330.292 424.292 334 425 C 330.303 415.498 324.743 404.336 324 395 C 317.111 385.222 315.279 370.387 312 357 C 306.219 357.608 303.256 354.868 300 358 Z " transform="matrix(0.9307692050933838, 0, 0, 0.9307692050933838, -254.5, -327.65)"/>
    <path id="ID0.8698426955379546" fill="none" d="M 306 353 C 307.667 353 309.333 353 311 353 C 311.450 354.633 305.549 354.633 306 353 Z " transform="matrix(0.9307692050933838, 0, 0, 0.9307692050933838, -254.5, -327.65)"/>
    <path id="ID0.5615635616704822" fill="none" d="M 312 353 C 321 353 330 353 339 353 C 339 376.667 339 400.333 339 424 C 327.941 411.726 326.863 389.470 318 375 C 319.792 368.305 313.502 362.575 314 354 C 313.224 353.776 312.027 353.973 312 353 Z " transform="matrix(0.9307692050933838, 0, 0, 0.9307692050933838, -254.5, -327.65)"/>
    <path id="ID0.4079858735203743" fill="#FF9400" d="M 312 357 C 315.279 370.387 317.111 385.222 324 395 C 324.743 404.336 330.303 415.498 334 425 C 330.292 424.292 329.708 426.708 326 426 C 322.623 416.710 318.042 408.624 315 399 C 308.830 399.497 304.730 402.063 298 402 C 297.006 411.006 294.354 418.354 293 427 C 288.882 427.785 287.868 425.465 284 426 C 288.408 402.408 295.196 381.196 300 358 C 303.256 354.868 306.219 357.608 312 357 Z M 301 396 C 306.654 394.518 309.818 393.934 315 395 C 313.788 385.545 309.718 378.949 308 370 C 307.779 369.221 307.162 368.837 306 369 C 303.040 376.142 300.709 388.903 301 396 Z " transform="matrix(0.9307692050933838, 0, 0, 0.9307692050933838, -254.5, -327.65)"/>
    <path id="ID0.7377838790416718" d="M 306 369 C 307.162 368.837 307.779 369.221 308 370 C 309.718 378.949 313.788 385.545 315 395 C 309.818 393.934 306.654 394.518 301 396 C 300.709 388.903 303.040 376.142 306 369 Z M 306 391 C 306.160 387.840 306.035 384.965 304 384 C 304.729 386.271 302.198 391.802 306 391 Z " transform="matrix(0.9307692050933838, 0, 0, 0.9307692050933838, -254.5, -327.65)"/>
    <path id="ID0.5625731283798814" fill="none" d="M 304 384 C 306.035 384.965 306.160 387.840 306 391 C 302.198 391.802 304.729 386.271 304 384 Z " transform="matrix(0.9307692050933838, 0, 0, 0.9307692050933838, -254.5, -327.65)"/>
    <path id="ID0.8488714252598584" fill="none" d="M 320 438 C 304.998 437.336 287.336 439.330 274 437 C 274 436.333 274 435.667 274 435 C 278.603 436.397 284.471 436.528 290 437 C 290.356 432.689 292.636 430.303 295 428 C 297.240 418.906 297.208 407.542 311 410 C 316.616 418.938 315.961 428.249 320 438 Z " transform="matrix(0.9307692050933838, 0, 0, 0.9307692050933838, -254.5, -327.65)"/>
    <path id="ID0.4829629873856902" fill="none" d="M 339 426 C 339 430 339 434 339 438 C 333.667 438 328.333 438 323 438 C 325.270 434.270 333.259 436.259 336 433 C 338.445 431.196 333.302 425.778 339 426 Z " transform="matrix(0.9307692050933838, 0, 0, 0.9307692050933838, -254.5, -327.65)"/>
  </g>
</svg>
